!!!COM: (Edward) Benjamin Britten
!!!OTL: [T805_Bri-w21p23m405-411]
**kern	**dynam	**kern	**dynam	**kern	**dynam	**kern	**dynam
*grp:A	*	*grp:A	*	*grp:B	*	*grp:B	*
*part4	*part4	*part3	*part3	*part2	*part2	*part1	*part1
*staff4	*	*staff3	*	*staff2	*	*staff1	*
*I"Violoncello	*	*I"Viola	*	*I"Violin II	*	*I"Violin I	*
*I'Vc.	*	*I'Vla.	*	*I'Vln. II	*	*I'Vln. I	*
*clefF4	*	*clefC3	*	*clefG2	*	*clefG2	*
*k[b-e-]	*	*k[b-e-]	*	*k[b-e-]	*	*k[b-e-]	*
*M5/4	*	*M5/4	*	*M5/4	*	*M5/4	*
=1	=1	=1	=1	=1	=1	=1	=1
!!LO:TX:t=[Poco animato [quarter]=78]
!	!	!	!	!	!LO:DY:t=[ %s legatis.]	!	!LO:DY:t=[ %s legatis.]
4r	.	4r	.	8ryy	4ryy	8ryy	4ryy
.	.	.	.	8ryy	.	8ryy	.
!LO:TX:a:rj:t=pizz.	!LO:DY:b:t=%s pesante	!	!LO:DY:rj	!	!	!	!
4En~	4ryy	(4En~>u	4ryy	8ryy	.	8ryy	.
.	.	.	.	8ryy	.	8ryy	.
4E~	.	4E~>	.	8ryy	.	8ryy	.
.	.	.	.	8ryy	.	8ryy	.
4E~	.	4E~>	.	8ryy	.	8ryy	.
.	.	.	.	8ryy	.	8ryy	.
4E~	.	4E~>)	.	8ryy	.	8ryy	.
.	.	.	.	8ryy	.	8ryy	.
=2	=2	=2	=2	=2	=2	=2	=2
4r	.	4r	.	8ryy	.	8ryy	.
.	.	.	.	8ryy	.	8ryy	.
4En~	.	(4En~>u	.	8ryy	.	8ryy	.
.	.	.	.	8ryy	.	8ryy	.
4E~	.	4E~>	.	8ryy	.	8ryy	.
.	.	.	.	8ryy	.	8ryy	.
4E~	.	4E~>	.	8ryy	.	8ryy	.
.	.	.	.	8ryy	.	8ryy	.
4E~	.	4E~>)	.	8ryy	.	8ryy	.
.	.	.	.	8ryy	.	8ryy	.
=3	=3	=3	=3	=3	=3	=3	=3
4r	.	4r	.	8ryy	.	8ryy	.
.	.	.	.	8ryy	.	8ryy	.
4En	4ryy	(4Env	4ryy	8ryy	.	8ryy	.
.	.	.	.	8ryy	.	8ryy	.
4.Bn	.	4.Bn	.	8ryy	4ryy	8ryy	4ryy
.	.	.	.	8ryy	.	8ryy	.
.	.	.	.	8ryy	.	8ryy	.
4.A	.	4.A)	.	8ryy	.	8ryy	.
.	.	.	.	8ryy	.	8ryy	.
.	4ryy	.	4ryy	8ryy	4ryy	8ryy	4ryy
=4	=4	=4	=4	=4	=4	=4	=4
4G#X	4ryy	[2.G#X	4ryy	8ryy	4ryy	8ryy	4ryy
.	.	.	.	8ryy	.	8ryy	.
4r	.	.	.	8ryy	.	8ryy	4ryy
.	.	.	.	8ryy	4ryy	8ryy	.
4r	.	.	.	8ryy	.	8ryy	.
.	.	.	.	8ryy	.	8ryy	.
2r	.	4G#]	.	8ryy	.	8ryy	.
.	.	.	.	8ryy	.	8ryy	.
.	.	4r	4ryy	8ryy	.	8ryy	.
.	.	.	.	8ryy	4ryy	8ryy	4ryy
=5	=5	=5	=5	=5	=5	=5	=5
4r	.	4r	.	8ryy	4ryy	8ryy	4ryy
.	.	.	.	8ryy	.	8ryy	.
4G#X~	4ryy	(4G#X~>	4ryy	8ryy	.	8ryy	.
.	.	.	.	8ryy	.	8ryy	.
4G#~	.	4G#~>	.	8ryy	.	8ryy	.
.	.	.	.	8ryy	.	8ryy	.
4G#~	.	4G#~>	.	8ryy	.	8ryy	.
.	.	.	.	8ryy	.	8ryy	.
4G#~	.	4G#~>)	.	8ryy	.	8ryy	.
.	.	.	.	8ryy	.	8ryy	.
!!LO:REH:t=410
=6	=6	=6	=6	=6	=6	=6	=6
!	!	!	!	!	!	!	!
4r	.	4r	.	8ryy	.	8ryy	.
.	.	.	.	8ryy	.	8ryy	.
4Fn~	.	(4Fn~>	.	8ryy	.	8ryy	.
.	.	.	.	8ryy	.	8ryy	.
4F~	.	4F~>	.	8ryy	.	8ryy	.
.	.	.	.	8ryy	.	8ryy	.
4F~	.	4F~>	.	8ryy	.	8ryy	.
.	.	.	.	8ryy	.	8ryy	.
4F~	.	4F~>)	.	8ryy	.	8ryy	.
.	.	.	.	8ryy	.	8ryy	.
=7	=7	=7	=7	=7	=7	=7	=7
4r	.	4r	.	8ryy	.	8ryy	.
.	.	.	.	8ryy	.	8ryy	.
4E-X	.	4E-Xu	.	8ryy	.	8ryy	.
.	.	.	.	8ryy	.	8ryy	.
4.E-	4ryy	(4.E-v	4ryy	8ryy	4ryy	8ryy	4ryy
.	.	.	.	8ryy	.	8ryy	.
.	.	.	.	8ryy	.	8ryy	.
4.D-X	.	4.D-X)	.	8ryy	.	8ryy	.
.	.	.	.	8ryy	.	8ryy	.
.	4ryy	.	4ryy	8ryy	.	8ryy	.
=	=	=	=	=	=	=	=
*-	*-	*-	*-	*-	*-	*-	*-
!!!system-decoration: [(s1,s2,s3,s4)]
!!!RDF**kern: > = above
!!!RDF**kern: j = marked note, color="magenta", text="extra)"
!!!EED:Jason Lee
!!!EEV:2022/01/12
